X: 1
T: Mulqueen's
M: 4/4
L: 1/8
R: reel
K: Dmaj
|F2 EG FDDG|FDAG FDDE|F2 EG FDDG|FABc dBAG|
F2 EG FDDG|FDAG FDDE|F2 EG FDDG|FABc d2 cd|
|e4 efed|cdef g2 fg|a2e2 efed|cABc d2 cd|
e2 e2 efed|cdef g2 fg|a2f2 g2 e2|dfec  dBAG|
